X:3-1
T:Praeludium III
Q:"Andante"
M:C
L:1/4
%%staves {(1 2) (3 4)}
K:Dm
%%writefields Q 0
Q:1/4=88
V:1 treble
A2d2-|d^cfe|de/f/gf|edcB/A/|G2B2-|
V:2
F4|G4|F2d2|B2AG/F/|E2G2-|
V:3 bass
A,4|B,4|A,2D2-|DEFD|E2E,2|
V:4
D,4-|D,4-|D,2B,A,|G,2A,B,|CC,-C,2-|
V:1
BAdc|B3A/G/|FE/D/^C2|A2d2-|d^cfe|
V:2
GF3-|F2=E2|DB,2A,/G,/|F,2F2|G4|
V:3
F,2B,A,|G,A,/B,/CB,|A,G,/F,/E,2|D,2A,2|B,4|
V:4
C,4-|C,3^C,|D,G,,A,,2|D,,2D,2-|D,4-|
V:1
de/f/gf|ef/g/ag|f2ef/e/|d2cd/c/|B4-|
V:2
F2d2-|dc/B/A2-|AB2A-|AG2F-|F2EF|
V:3
A,2D_A|G2E2|D2E2|F=E2C-|C_D3-|
V:4
D,2B,=B,|C2^C=B,/C/|D2^C=C|=B,_B,A,2|G,2_G,F,|
V:1
B3c/B/|A2c2-|c!tie(!Bgf|=e3f|g3a/g/|f2_ef/e/|
V:2
G4|FCFE|D2!tie)!B2-|B4-|Bc_d2-|dc2B-|
V:3
D_DC2|F,2A,2|B,2D2-|D_DGF&x_D3|E4&_DCB,2|zFB,C&A,2x2|
V:4
=E,3=D,/E,/|F,2F,,2|F,4|F,4-|F,4-|F,2G,2-|
V:1
d3c|B2d2-|d!tie(!cag|^f3g|a3b/a/|
V:2
BA^FG/A/|GDGF|_E2!tie)!c2-|c4-|cd_e2-|
V:3
D3D|G,2B,2|C2_E2-|E_EAG&x_E3|^F4-&_EDC2|
V:4
G,^F,D,E,/F,/|G,,4|G,4|G,4-|G,4|
%
V:1
g2f2|_e3f/e/|d3=e/f/|g2c2-|c3d/e/|
V:2
ed2d-|dBcF-|FcBA|G3G|F[EB][FA]G|
V:3
FG2A|BA/G/FC|B,AGF|EDC2-|C3G,|
V:4
B,2A,2|G,2A,2|B,4-|B,3B,|A,G,F,E,|
V:1
f2ed|^c2A_B/=c/|d2FG/A/|B4-|B3A-|
V:2
FG/A/B=B|A2AG|FEDC|B,B,ED-|D2^C2|
V:3
A,G,/F,/G,F,|E,A,FE|DCB,A,|G,D,^C,F,|E,4|
V:4
D,2G,,^G,,|A,,A,3-|A,4|A,,4-|A,,2A,,2|
V:1
A2d2-|d^cfe|de/f/gf|edcB/A/|G2B2-|BAdc|
V:2
D2F2|G4|F2d2|B2AG/F/|E2G2-|GF3-|
V:3
F,2A,2|B,4|A,2D2-|DEFD|E2E,2|F,2B,A,|
V:4
D,,2D,2-|D,4-|D,2B,A,|G,2A,B,|CC,-C,2-|C,4-|
V:1
B3A/G/|FE/D/^C2|A2c2-|cB=ed|^c3d|
V:2
F2=E2|DB,2A,/G,/|F,2_E2|D2G2-|GG3-|
V:3
G,A,/B,/CB,|A,G,/F,/E,2|D,2^F,2|G,2B,2-|B,B,ED&xB,3-|
V:4
C,3^C,|D,G,,A,,2|D,,4|D,4-|D,4-|
V:1
e3f/e/|d2A2|A2GF|E2ED|H^C4|]
V:2
GAB2|A2A2|D3D|D2B,2|A,4|]
V:3
^C4&B,A,G,2|DA,DC|B,D,B,A,|G,B,,G,F,|E,4|]
V:4
D,4|F,2^F,2|[G,,,G,,]4-|[G,,,G,,]4|[A,,,A,,]4|]

